X:289
T:Magic Foot
C:Russ Barenberg
N:Transcribed by Jim Nikora
R:bluegrass
L:1/8
Q:1/4=170
M:4/4
K:A
"A"A2 ce ee ce | ee ce "E7"dB GE | "A"AA ce ee ce | "E7"dB GE "A"AA EA | zE ce ee ce | 
ee ce "E7"dB GE | "A"AA ce ze ce | "E7"dB GE "A"Ac ee | cA eA ce cA | "D"FA eA "E7"GB ee | 
"A"cA eA ce cA | "E7"Be ec "A"Ac ee | cA eA ce cA | "D"FA eA "E7"GB ee | "A"cA eA ce cA | 
"E7"Be ec "A"A2 ac' | "E"be ee Be ee | ze ee Be ac' | be ee Be ee | zc BA "A"A2 ac' | 
"E"be ee Be ee | ze ee Be ac' | be ee Be ee | zB ef ec Bc | "A"Ac ee ee cA | "E7"GA GE2B, EG | 
"A"Ac eA "E7"GA GE | B,B, EG "A"AA EA | zc ee ee cA | "E7"GA GE2B, EG | "A"Ac eA "E7"GA GE | 
B,B, EG "A"A4 | 


